X:74
M:2/4
L:1/8
K:D
e2 dB | AF D>E | FB AF | E2 E :| 
e2 dB | AF D>E | FB AF | E2 E :|| 

